storage/app/icons/phosphoricons/fill/shirt-folded-fill.svg

<svg xmlns="http://www.w3.org/2000/svg" fill="currentColor" viewBox="0 0 256 256"><path d="M201 40h-21.65l-13.69-13.66A8 8 0 0 0 160 24H96a8 8 0 0 0-5.66 2.34L76.65 40H55a15 15 0 0 0-15 15v154a15 15 0 0 0 15 15h61a4 4 0 0 0 4-4V104.27a8.18 8.18 0 0 1 7.47-8.27 8 8 0 0 1 8.53 8v116a4 4 0 0 0 4 4h61a15 15 0 0 0 15-15V55a15 15 0 0 0-15-15M86.54 107.08A4 4 0 0 1 80 104V59.31l15.24-15.24 23.47 35.21ZM176 104a4 4 0 0 1-2.3 3.63 3.93 3.93 0 0 1-4.21-.51l-32.2-27.82 23.47-35.21L176 59.31Z"/></svg>

<svg xmlns="http://www.w3.org/2000/svg" viewBox="0 0 256 256" fill="currentColor"><path d="M201,40H179.35L165.66,26.34A8,8,0,0,0,160,24H96a8,8,0,0,0-5.66,2.34L76.65,40H55A15,15,0,0,0,40,55V209a15,15,0,0,0,15,15h61a4,4,0,0,0,4-4V104.27A8.18,8.18,0,0,1,127.47,96a8,8,0,0,1,8.53,8V220a4,4,0,0,0,4,4h61a15,15,0,0,0,15-15V55A15,15,0,0,0,201,40ZM86.54,107.08A4,4,0,0,1,80,104V59.31L95.24,44.07l23.47,35.21ZM128,80h0v0Zm48,24a4,4,0,0,1-2.3,3.63,3.93,3.93,0,0,1-4.21-.51l-32.2-27.82,23.47-35.21L176,59.31Z"/></svg>
